packages/core/src/svgs/tokens/branded/CTG.svg

<svg width="24" height="24" viewBox="0 0 24 24" fill="none" xmlns="http://www.w3.org/2000/svg">
<path fill-rule="evenodd" clip-rule="evenodd" d="M22 12C22 14.6522 20.9464 17.1957 19.0711 19.071C17.1957 20.9464 14.6522 22 12 22C9.34784 22 6.80429 20.9464 4.92892 19.071C3.05357 17.1957 2 14.6522 2 12C2 9.34785 3.05357 6.80429 4.92892 4.92892C6.80429 3.05357 9.34784 2 12 2C14.6522 2 17.1957 3.05357 19.0711 4.92892C20.9464 6.80429 22 9.34785 22 12ZM19.647 12C19.647 14.0281 18.8413 15.9731 17.4073 17.4073C15.9731 18.8414 14.0281 19.647 12 19.647C9.9718 19.647 8.0268 18.8414 6.59271 17.4073C5.1586 15.9731 4.35293 14.0281 4.35293 12C4.35293 9.97181 5.1586 8.0268 6.59271 6.5927C8.0268 5.1586 9.9718 4.35293 12 4.35293C14.0281 4.35293 15.9731 5.1586 17.4073 6.5927C18.8413 8.0268 19.647 9.97181 19.647 12ZM6.11764 11.7059C6.21763 9.84705 7.54706 6.11764 12.0294 6.11764C13.1278 6.1201 14.2035 6.43067 15.1341 7.01403C16.0648 7.59739 16.8131 8.43014 17.2941 9.41758H15.1353C14.9411 9.11175 14.3823 8.48823 13.7529 8.48823C12.9646 8.48823 12.2705 9.40591 12.0294 10.047L11.9764 10.1765C11.4561 11.4915 11.206 12.8979 11.2411 14.3118C11.2411 16.6823 13.2059 18.3176 14.9353 16.0647C14.2058 15.9471 12.7412 15.4352 12.7412 14.3118C12.6823 14.0293 12.9882 13.4647 14.6588 13.4647C16.7412 13.4647 17.1412 14.1588 17.1412 14.7236C17.1412 15.2882 16.2412 17.8824 12.7412 17.8824C9.23529 17.8824 8.65293 14.8412 8.65293 13.1C8.65293 11.7 9.5706 9.72352 10.0294 8.90586C10.0706 8.82351 10.0882 8.68234 9.82946 8.78233C9.50582 8.89999 7.37646 10.447 7.37646 12.8882C7.04332 12.4128 6.61456 12.012 6.11764 11.7118V11.7059Z" fill="black"/>
</svg>

<svg xmlns="http://www.w3.org/2000/svg" width="24" height="24" fill="none" viewBox="0 0 24 24">
    <path fill="#000" fill-rule="evenodd" d="M22 12a10 10 0 1 1-20 0 10 10 0 0 1 20 0m-2.353 0a7.648 7.648 0 1 1-15.295 0 7.648 7.648 0 0 1 15.295 0m-13.53-.294c.1-1.859 1.43-5.588 5.912-5.588a5.87 5.87 0 0 1 5.265 3.3h-2.159c-.194-.306-.753-.93-1.382-.93-.788 0-1.482.918-1.724 1.559l-.053.13a10.5 10.5 0 0 0-.735 4.135c0 2.37 1.965 4.006 3.694 1.753-.73-.118-2.194-.63-2.194-1.753-.059-.283.247-.847 1.918-.847 2.082 0 2.482.694 2.482 1.259 0 .564-.9 3.158-4.4 3.158-3.506 0-4.088-3.04-4.088-4.782 0-1.4.918-3.376 1.376-4.194.042-.082.06-.224-.2-.124-.323.118-2.453 1.665-2.453 4.106a4.2 4.2 0 0 0-1.258-1.176z" clip-rule="evenodd"/>
</svg>
